X:3-2
T:Fuga III
Q:"Andante con moto"
M:C
L:1/4
%%staves {(1 2) (3 4)}
K:Dm
%%writefields Q 0
Q:1/4=88
V:1 treble
z4|z4|z4|z4|A2c2-|c=Bed|^cd/e/fe|
V:2
!p!D2F2-|FEAG|^FG/A/BA|^Gd^c=G|^F=FEF/E/|D=B/A/^G^F/G/|AF/E/D=C|
V:3 bass
z4|z4|z4|z4|z4|z4|z4|
V:4
z4|z4|z4|z4|z4|z4|z4|
V:1
^da^g=d-|d=g2f/e/|f2d2-|d2^c=B/c/|d3e/=f/|e3f/=g/|a2e2|
V:2
=B,2E2|_B2A=B/^c/|dA_BA|G2EA-|A_B/A/Gc|=B2_B2|A2e2-|
V:3
z4|z4|z4|z4|z4|z4|A,2C2-|
V:4
z4|z4|D,2F,2-|F,E,A,G,|^F,G,/A,/B,A,|^G,D^C=G,|^F,=F,E,A,|
V:1
f2e2-|ed2c|=B3c/B/|A=B/c/dc|=Bf2e|A2c2-|c=Bed|^cd/e/fe|
V:2
ed/c/=BE|A3A|A2=D^G|A2FE|FA^G2|A2z2|z4|z4|
V:3
C=B,ED|^CD/E/FE|^DA^G=D|CA,^G,A,|DC=B,2|CA,FE|D2=B,2|_B,2A,=B,/^C/|
V:4
D,=B,/A,/^G,2|=G,F,/E,/D,E,|^F,2E,2|F,2=B,,C,|D,2E,2|A,4-|A,2^G,2|=G,4|
V:1
da^gd|^c3d/e/|f2d2-|d2^c2|d4-|d2ed/e/|f2^fe/f/|g3^f/^g/|
V:2
z4|z4|D2F2-|FEA=G|^FG/A/BA|^Gd^c=G|FA_BA-|AGc=B|
V:3
DA,=B,F|E_B,A,G|F2z2|z4|z4|z4|A,2C2-|C=B,ED|
V:4
F,2E,2-|E,2A,=B,/^C/|DF,_B,A,|^G,2A,2|D,E,/^F,/G,=F,|E,=B,_B,A,|D,2z2|z4|
V:1
a2de|f2e2|_e2de/d/|cd/_e/dc|B3f|edcB|Azc2-|cB2A/G/|
V:2
A=B/^c/d=c|=B3_B-|BA2G-|G2^F2|GAG2-|GD/E/FE|FCFE|DG/F/=E2|
V:3
^CD/E/FE|DAG^C|=C2B,2|A,B,/C/B,A,|G,F=ED|CB,A,G,|F,2zC,|D,2C,2|
V:4
z4|z4|z4|z4|z4|z4|F,,2A,,2-|A,,G,,C,B,,|
%
V:1
c2BA|d2G2|c2z2|z4|z4|z4|z4|
V:2
F2^F2|=FD2E/D/|C2E2-|EDGF|EF/G/AG|^Fc=BG/F/|E_BA>G|
V:3
C3E,/^F,/|G,3C,-|C,F,G,F,/E,/|A,_A,G,=A,/=B,/|C=B,A,B,/^C/|D3E/D/|^C2A,=B,/C/|
V:4
A,,B,,/C,/D,C,|=B,,=F,D,_B,,|A,,2G,,2|F,,F,E,D,|C,D,/E,/F,E,|D,_A,G,2-|G,G,=F,E,|
V:1
F2A2-|AG=cB|AB/c/dc|_BfeB|a2de/f/|g3a/g/|f2Bc/d/|
V:2
FE/D/C^C|DG/F/EG-|GFBA|D2B2|A2B2-|BBA2-|AFGF|
V:3
DzF,2-|F,B,/A,/G,E,|D,F,^F,E,/F,/|G,D^C2|D=CB,2|^CDE2|DA,G,B,|
V:4
D,C,/B,,/A,,2|B,,2C,^C,|D,4|G,,2G,2|F,2G,F,|E,D,^C,2|D,2_E,D,|
V:1
_e3f/e/|dcBA|G2d2-|d4-|d2^cz|z4|z2A2|d4-|
V:2
_G2F2-|F_ED2-|D^C/D/F=E/D/|FD^GA/=B/|A3z|D2F2-|FEA=G|^FG/A/BA|
V:3
A,B,C2|B,^F,G,C|B,4|D,2F,2-|F,E,A,G,|F,G,/A,/B,A,|^G,D^C^C,|D,=E,/^F,/G,=F,|
V:4
C,B,,A,,2|B,,4-|B,,4|A,,4-|A,,4-|A,,4-|A,,4-|A,,4-|
V:1
ddfe|de/f/gf-|f3f|e2A2-|A2d2-|d3^c|d2z2|z4|
V:2
^Gd^c=G|F2d2|A^G3|=G2AG|FG/A/BA|GFE2|F2z2|^C2E2-|
V:3
E,B,A,^C,|D,2F,2|=B,3B,|_B,2A,=B,/^C/|D2B,2-|B,A,3|D,2F,2-|F,E,A,G,|
V:4
A,,4-|A,,4-|A,,2D,2-|D,^C,F,E,|D,E,/F,/G,F,|E,F,/G,/A,A,,|D,,4-|D,,4-|
V:1
z4|z4|d2f2-|fea_e|d=e/^f/g^c|dABA|A4-|A2G2|H^F4|]
V:2
EDGF|EF/G/AG|F=c_BF|A2^F2-|FGD=E|FE/D/^C2|D2D2-|D2^C2|D4|]
V:3
F,G,/A,/B,A,|G,D^C=B,/C/|D4|^C2=C2|=B,2_B,2|A,G,/F,/E,G,|\
	F,2[^F,C]2|[G,=B,]2[=E,_B,]2|[^F,A,]4|]
V:4
D,,4-|D,,4-|D,,4-|D,,4-|D,,4-|D,,4-|D,,4-|D,,4-|HD,,4|]
